assets/images/home/FAQ.svg

<svg viewBox="0 0 100 100" xmlns="http://www.w3.org/2000/svg"><circle cx="50" cy="50" fill="#fedd55" r="49.33"/><path d="m98.88 56.65-11-11-10.38-2.65-20.92-20.94-42.78 29.77 6.67 6.68-1.13 2.87 37.47 37.48a49.36 49.36 0 0 0 42.07-42.21z" fill="#fcc63d"/><path d="m80.51 42.28h-29a9.82 9.82 0 0 0 -9.79 9.79v15.93a9.82 9.82 0 0 0 9.79 9.79h16.87l13.06 7.1v-7.1a9.83 9.83 0 0 0 8.86-9.79v-16a9.82 9.82 0 0 0 -9.79-9.79z" fill="#ff807d"/><path d="m90.3 52.07v15.93a9.83 9.83 0 0 1 -8.86 9.75v7.14l-13.06-7.1h-2.38v-35.51h14.51a9.82 9.82 0 0 1 9.79 9.79z" fill="#fc3e53"/><path d="m71.49 69.8 2.71-1-6.82-18.07h-2.66l-6.88 18.05 2.7 1 1.66-4.35h7.65zm-8.19-7.23 2.7-7.2 2.72 7.2z" fill="#fff"/><path d="m67.38 50.73h-1.38v4.7-.06l2.72 7.2h-2.72v2.89h3.83l1.64 4.34 2.71-1z" fill="#eae1dc"/><path d="m49.24 18.73h-29a9.82 9.82 0 0 0 -9.79 9.79v16a9.82 9.82 0 0 0 8.87 9.74v7.15l13.06-7.1h16.86a9.82 9.82 0 0 0 9.76-9.82v-16a9.82 9.82 0 0 0 -9.79-9.79z" fill="#238cf8"/><path d="m59 28.52v16a9.82 9.82 0 0 1 -9.79 9.79h-14.49v-35.58h14.52a9.82 9.82 0 0 1 9.76 9.79z" fill="#0768dd"/><path d="m44.82 44.05-2.43-2.43a9.45 9.45 0 1 0 -2 2.06l2.41 2.41zm-10.1-1.38a6.54 6.54 0 1 1 5.59-3.13l-2.65-2.65-2 2 2.67 2.68a6.51 6.51 0 0 1 -3.57 1.06z" fill="#fff"/><path d="m42.39 41.62a9.44 9.44 0 0 0 -7.67-14.94v2.89a6.55 6.55 0 0 1 5.59 10l-2.65-2.65-2 2 2.67 2.68a6.51 6.51 0 0 1 -3.57 1.06v2.89a9.4 9.4 0 0 0 5.65-1.88l2.41 2.41 2-2z" fill="#eae1dc"/></svg>

<svg id="Layer_1" data-name="Layer 1" xmlns="http://www.w3.org/2000/svg" viewBox="0 0 100 100"><defs><style>.cls-1{fill:#fedd55;}.cls-2{fill:#fcc63d;}.cls-3{fill:#ff807d;}.cls-4{fill:#fc3e53;}.cls-5{fill:#fff;}.cls-6{fill:#eae1dc;}.cls-7{fill:#238cf8;}.cls-8{fill:#0768dd;}</style></defs><circle class="cls-1" cx="50" cy="50" r="49.33"/><path class="cls-2" d="M98.88,56.65l-11-11L77.5,43,56.58,22.06,13.8,51.83l6.67,6.68-1.13,2.87L56.81,98.86A49.36,49.36,0,0,0,98.88,56.65Z"/><path class="cls-3" d="M80.51,42.28h-29a9.82,9.82,0,0,0-9.79,9.79V68a9.82,9.82,0,0,0,9.79,9.79H68.38l13.06,7.1V77.79A9.83,9.83,0,0,0,90.3,68v-16a9.82,9.82,0,0,0-9.79-9.79Z"/><path class="cls-4" d="M90.3,52.07V68a9.83,9.83,0,0,1-8.86,9.75v7.14l-13.06-7.1H66V42.28H80.51a9.82,9.82,0,0,1,9.79,9.79Z"/><path class="cls-5" d="M71.49,69.8l2.71-1L67.38,50.73H64.72L57.84,68.78l2.7,1,1.66-4.35h7.65ZM63.3,62.57,66,55.37l2.72,7.2Z"/><path class="cls-6" d="M67.38,50.73H66v4.7l0-.06,2.72,7.2H66v2.89h3.83l1.64,4.34,2.71-1Z"/><path class="cls-7" d="M49.24,18.73h-29a9.82,9.82,0,0,0-9.79,9.79v16a9.82,9.82,0,0,0,8.87,9.74v7.15l13.06-7.1H49.24A9.82,9.82,0,0,0,59,44.49v-16a9.82,9.82,0,0,0-9.79-9.79Z"/><path class="cls-8" d="M59,28.52v16a9.82,9.82,0,0,1-9.79,9.79H34.72V18.73H49.24A9.82,9.82,0,0,1,59,28.52Z"/><path class="cls-5" d="M44.82,44.05l-2.43-2.43a9.45,9.45,0,1,0-2,2.06l2.41,2.41Zm-10.1-1.38a6.54,6.54,0,1,1,5.59-3.13l-2.65-2.65-2,2,2.67,2.68a6.51,6.51,0,0,1-3.57,1.06Z"/><path class="cls-6" d="M42.39,41.62a9.44,9.44,0,0,0-7.67-14.94v2.89a6.55,6.55,0,0,1,5.59,10l-2.65-2.65-2,2,2.67,2.68a6.51,6.51,0,0,1-3.57,1.06v2.89a9.4,9.4,0,0,0,5.65-1.88l2.41,2.41,2-2Z"/></svg>
